images/dracula.svg

<svg height="250" viewBox="0 0 250 250" width="250" xmlns="http://www.w3.org/2000/svg"><path d="m111.328125 248.4375c-8.691406-1.660156-21.582031-4.394531-23.046875-4.882812-20.800781-7.03125-35.9375-16.308594-50.683594-31.152344-14.84375-14.746094-24.121094-29.882813-31.152344-50.683594-5.371093-15.917969-6.640624-44.042969-2.734374-61.71875 2.34375-11.035156 2.34375-10.9375 5.761718-19.921875 12.304688-31.738281 38.867188-58.300781 70.605469-70.605469 8.984375-3.417968 8.886719-3.417968 19.921875-5.761718 13.964844-3.125 36.035156-3.125 50 0 11.035156 2.34375 10.9375 2.34375 19.921875 5.761718 16.113281 6.25 29.492187 15.039063 42.480469 28.125 14.84375 14.746094 24.121094 29.882813 31.152344 50.683594 5.371093 15.917969 6.640624 44.042969 2.734374 61.71875-2.34375 11.035156-2.34375 10.9375-5.761718 19.921875-12.304688 31.738281-38.867188 58.300781-70.605469 70.605469-8.886719 3.417968-8.886719 3.417968-19.335937 5.664062-9.179688 1.953125-33.203126 3.320313-39.257813 2.246094zm16.113281-58.691406c1.464844-4.785156 7.617188-18.652344 13.671875-31.054688 16.113281-32.519531 23.632813-56.152344 26.855469-84.082031 1.5625-13.28125.976562-16.503906-1.367188-7.714844-.976562 3.808594-3.125 9.765625-4.785156 13.476563-2.734375 6.152344-3.125 6.542968-6.152344 6.542968h-3.320312l-.195312-15.820312-.292969-15.917969-11.425781 11.523438c-10.9375 10.9375-11.523438 11.425781-15.527344 11.425781-3.90625 0-4.589844-.488281-14.355469-10.253906-5.664063-5.664063-10.9375-10.742188-11.816406-11.132813-1.367188-.78125-1.5625.585938-1.269531 14.160157l.292968 15.039062h-3.417968c-3.125 0-3.710938-.488281-5.566407-4.199219-1.171875-2.246093-3.417969-8.007812-4.882812-12.890625-2.636719-8.59375-2.734375-8.691406-2.734375-4.199218-.195313 11.621093 4.492187 35.742187 10.253906 53.222656 5.273438 15.917968 10.742188 28.808594 20.117188 47.167968 4.003906 7.8125 8.496093 18.457032 10.058593 23.632813 1.660157 5.273437 3.027344 9.570313 3.027344 9.570313.097656 0 1.367187-3.808594 2.832031-8.496094zm-56.738281-33.496094c2.929687-1.074219 7.8125-1.953125 10.839844-1.953125 2.929687 0 5.371093-.195313 5.371093-.488281 0-.195313-1.367187-3.808594-3.027343-8.007813-3.808594-9.570312-8.496094-24.804687-9.277344-30.566406-.390625-2.441406-.878906-4.980469-1.269531-5.566406-.390625-.683594-3.613282 10.058593-7.226563 23.925781-3.613281 13.769531-6.835937 26.171875-7.226562 27.441406l-.585938 2.34375 3.417969-2.636718c1.953125-1.464844 5.957031-3.515626 8.984375-4.492188zm115.722656-12.207031c-9.960937-38.183594-9.570312-37.207031-11.035156-28.320313-1.074219 6.054688-6.25 22.265625-9.765625 30.761719l-3.222656 7.617187 7.421875.390626c5.761719.390624 8.691406 1.171874 13.476562 3.515624 3.320313 1.660157 6.347657 3.515626 6.640625 4.101563 1.660156 2.734375.976563-.878906-3.515625-18.066406zm-135.839843-8.300781c2.246093-7.8125 4.882812-17.480469 5.957031-21.484376 2.734375-10.351562 11.523437-44.042968 12.109375-46.679687.292968-1.367187-5.957032 4.003906-17.675782 15.234375-10.058593 9.667969-22.753906 21.582031-28.320312 26.660156l-10.058594 9.179688 3.613282.78125c5.664062 1.171875 14.84375 6.542968 18.652343 10.839844 3.90625 4.492187 8.789063 14.0625 9.667969 19.042968.878906 4.394532 1.367188 3.320313 6.054688-13.574218zm155.371093 10.742187c3.613281-12.988281 14.648438-24.121094 26.660157-26.855469l4.882812-1.074218-14.453125-13.28125c-8.007813-7.226563-20.703125-19.140626-28.222656-26.464844-7.519531-7.226563-13.769531-12.988282-13.964844-12.890625-.195313.195312 2.148437 9.667969 5.175781 21.191406 3.027344 11.425781 6.347656 23.925781 7.324219 27.636719.976563 3.808594 3.320313 12.792968 5.371094 20.019531s3.90625 14.160156 4.101562 15.429687c.683594 2.929688 1.5625 1.855469 3.125-3.710937zm0 0" fill="#fd5767"/><g fill="#24232b"><path d="m123.144531 210.253906c-1.660156-12.109375-7.910156-29.980468-15.234375-43.945312-15.722656-29.6875-25.097656-58.007813-28.90625-87.695313-1.269531-9.472656-.683594-33.496093.878906-37.597656.78125-2.050781 1.074219-1.464844 2.050782 4.394531 2.441406 14.453125 10.058594 37.597656 12.5 37.597656.292968 0 .292968-7.519531 0-16.601562-.585938-15.234375-.488282-16.601562 1.074218-16.601562 2.050782 0 12.988282 9.570312 21.582032 18.75 3.417968 3.613281 7.03125 6.640624 8.007812 6.640624.976563 0 3.808594-2.441406 6.445313-5.46875 5.957031-7.03125 20.800781-19.921874 22.851562-19.921874 1.367188 0 1.464844 1.953124 1.171875 17.285156l-.390625 17.382812 2.832031-5.371094c3.710938-6.933593 8.984376-25.78125 11.035157-38.964843.390625-2.636719 1.953125 7.324219 2.441406 16.015625 1.757813 29.882812-7.226563 64.550781-27.441406 105.46875-11.914063 24.21875-15.429688 33.691406-17.1875 47.070312-.683594 4.6875-1.464844 8.984375-1.855469 9.375s-1.171875-3.125-1.855469-7.8125zm0 0"/><path d="m51.757812 175c0-.390625 5.175782-20.410156 11.523438-44.628906 9.570312-37.011719 11.425781-43.164063 11.71875-39.0625.976562 19.433594 8.007812 45.703125 16.699219 62.792968l1.855469 3.613282h-8.984376c-7.8125 0-9.570312.292968-14.648437 2.832031-3.125 1.5625-8.496094 5.46875-11.914063 8.886719-3.417968 3.417968-6.25 5.859375-6.25 5.566406zm0 0"/><path d="m192.382812 169.921875c-3.125-3.222656-8.105468-7.03125-11.71875-8.886719-5.859374-3.027344-7.03125-3.320312-15.234374-3.320312h-8.984376l2.441407-5.371094c9.375-20.996094 15.917969-44.140625 15.917969-56.640625 0-6.835937 1.464843-4.980469 4.003906 5.078125 2.734375 10.546875 11.230468 43.066406 16.40625 62.695312 1.757812 6.347657 2.929687 11.71875 2.832031 11.816407-.195313.097656-2.734375-2.34375-5.664063-5.371094zm0 0"/><path d="m203.320312 165.039062c-.585937-1.855468-2.636718-9.375-4.589843-16.601562s-4.394531-16.015625-5.371094-19.53125c-1.074219-3.515625-2.539063-8.984375-3.222656-12.207031-.78125-3.222657-4.589844-17.675781-8.496094-32.226563-3.90625-14.453125-7.324219-27.636718-7.519531-29.296875-.488282-2.539062 1.074218-1.464843 12.5 9.863281 18.164062 17.871094 31.445312 30.371094 46.289062 43.75 7.03125 6.347657 12.792969 11.816407 12.988282 12.207032.097656.488281-2.734376.976562-6.445313 1.269531-8.398437.585937-15.234375 4.101563-21.289063 10.839844-5.664062 6.347656-8.789062 12.988281-11.132812 24.121093-1.074219 5.078126-2.148438 9.765626-2.34375 10.253907-.097656.585937-.78125-.585938-1.367188-2.441407zm0 0"/><path d="m43.066406 157.910156c-3.90625-16.796875-9.960937-26.171875-20.800781-31.933594-4.394531-2.34375-7.910156-3.417968-12.402344-3.808593l-6.25-.585938 19.433594-18.066406c10.644531-9.960937 26.757813-25.195313 35.644531-33.886719 8.886719-8.789062 16.40625-15.917968 16.699219-15.917968 1.074219 0-28.515625 111.621093-29.980469 113.085937-.195312.195313-1.269531-3.808594-2.34375-8.886719zm0 0"/></g></svg>

<svg xmlns="http://www.w3.org/2000/svg" xmlns:xlink="http://www.w3.org/1999/xlink" width="250px" height="250px" viewBox="0 0 250 250" version="1.1">
<g id="surface1">
<path style=" stroke:none;fill-rule:nonzero;fill:rgb(99.215686%,34.117648%,40.392157%);fill-opacity:1;" d="M 111.328125 248.4375 C 102.636719 246.777344 89.746094 244.042969 88.28125 243.554688 C 67.480469 236.523438 52.34375 227.246094 37.597656 212.402344 C 22.753906 197.65625 13.476562 182.519531 6.445312 161.71875 C 1.074219 145.800781 -0.195312 117.675781 3.710938 100 C 6.054688 88.964844 6.054688 89.0625 9.472656 80.078125 C 21.777344 48.339844 48.339844 21.777344 80.078125 9.472656 C 89.0625 6.054688 88.964844 6.054688 100 3.710938 C 113.964844 0.585938 136.035156 0.585938 150 3.710938 C 161.035156 6.054688 160.9375 6.054688 169.921875 9.472656 C 186.035156 15.722656 199.414062 24.511719 212.402344 37.597656 C 227.246094 52.34375 236.523438 67.480469 243.554688 88.28125 C 248.925781 104.199219 250.195312 132.324219 246.289062 150 C 243.945312 161.035156 243.945312 160.9375 240.527344 169.921875 C 228.222656 201.660156 201.660156 228.222656 169.921875 240.527344 C 161.035156 243.945312 161.035156 243.945312 150.585938 246.191406 C 141.40625 248.144531 117.382812 249.511719 111.328125 248.4375 Z M 127.441406 189.746094 C 128.90625 184.960938 135.058594 171.09375 141.113281 158.691406 C 157.226562 126.171875 164.746094 102.539062 167.96875 74.609375 C 169.53125 61.328125 168.945312 58.105469 166.601562 66.894531 C 165.625 70.703125 163.476562 76.660156 161.816406 80.371094 C 159.082031 86.523438 158.691406 86.914062 155.664062 86.914062 L 152.34375 86.914062 L 152.148438 71.09375 L 151.855469 55.175781 L 140.429688 66.699219 C 129.492188 77.636719 128.90625 78.125 124.902344 78.125 C 120.996094 78.125 120.3125 77.636719 110.546875 67.871094 C 104.882812 62.207031 99.609375 57.128906 98.730469 56.738281 C 97.363281 55.957031 97.167969 57.324219 97.460938 70.898438 L 97.753906 85.9375 L 94.335938 85.9375 C 91.210938 85.9375 90.625 85.449219 88.769531 81.738281 C 87.597656 79.492188 85.351562 73.730469 83.886719 68.847656 C 81.25 60.253906 81.152344 60.15625 81.152344 64.648438 C 80.957031 76.269531 85.644531 100.390625 91.40625 117.871094 C 96.679688 133.789062 102.148438 146.679688 111.523438 165.039062 C 115.527344 172.851562 120.019531 183.496094 121.582031 188.671875 C 123.242188 193.945312 124.609375 198.242188 124.609375 198.242188 C 124.707031 198.242188 125.976562 194.433594 127.441406 189.746094 Z M 70.703125 156.25 C 73.632812 155.175781 78.515625 154.296875 81.542969 154.296875 C 84.472656 154.296875 86.914062 154.101562 86.914062 153.808594 C 86.914062 153.613281 85.546875 150 83.886719 145.800781 C 80.078125 136.230469 75.390625 120.996094 74.609375 115.234375 C 74.21875 112.792969 73.730469 110.253906 73.339844 109.667969 C 72.949219 108.984375 69.726562 119.726562 66.113281 133.59375 C 62.5 147.363281 59.277344 159.765625 58.886719 161.035156 L 58.300781 163.378906 L 61.71875 160.742188 C 63.671875 159.277344 67.675781 157.226562 70.703125 156.25 Z M 186.425781 144.042969 C 176.464844 105.859375 176.855469 106.835938 175.390625 115.722656 C 174.316406 121.777344 169.140625 137.988281 165.625 146.484375 L 162.402344 154.101562 L 169.824219 154.492188 C 175.585938 154.882812 178.515625 155.664062 183.300781 158.007812 C 186.621094 159.667969 189.648438 161.523438 189.941406 162.109375 C 191.601562 164.84375 190.917969 161.230469 186.425781 144.042969 Z M 50.585938 135.742188 C 52.832031 127.929688 55.46875 118.261719 56.542969 114.257812 C 59.277344 103.90625 68.066406 70.214844 68.652344 67.578125 C 68.945312 66.210938 62.695312 71.582031 50.976562 82.8125 C 40.917969 92.480469 28.222656 104.394531 22.65625 109.472656 L 12.597656 118.652344 L 16.210938 119.433594 C 21.875 120.605469 31.054688 125.976562 34.863281 130.273438 C 38.769531 134.765625 43.652344 144.335938 44.53125 149.316406 C 45.410156 153.710938 45.898438 152.636719 50.585938 135.742188 Z M 205.957031 146.484375 C 209.570312 133.496094 220.605469 122.363281 232.617188 119.628906 L 237.5 118.554688 L 223.046875 105.273438 C 215.039062 98.046875 202.34375 86.132812 194.824219 78.808594 C 187.304688 71.582031 181.054688 65.820312 180.859375 65.917969 C 180.664062 66.113281 183.007812 75.585938 186.035156 87.109375 C 189.0625 98.535156 192.382812 111.035156 193.359375 114.746094 C 194.335938 118.554688 196.679688 127.539062 198.730469 134.765625 C 200.78125 141.992188 202.636719 148.925781 202.832031 150.195312 C 203.515625 153.125 204.394531 152.050781 205.957031 146.484375 Z M 205.957031 146.484375 "/>
<path style=" stroke:none;fill-rule:nonzero;fill:rgb(14.117648%,13.725491%,16.862746%);fill-opacity:1;" d="M 123.144531 210.253906 C 121.484375 198.144531 115.234375 180.273438 107.910156 166.308594 C 92.1875 136.621094 82.8125 108.300781 79.003906 78.613281 C 77.734375 69.140625 78.320312 45.117188 79.882812 41.015625 C 80.664062 38.964844 80.957031 39.550781 81.933594 45.410156 C 84.375 59.863281 91.992188 83.007812 94.433594 83.007812 C 94.726562 83.007812 94.726562 75.488281 94.433594 66.40625 C 93.847656 51.171875 93.945312 49.804688 95.507812 49.804688 C 97.558594 49.804688 108.496094 59.375 117.089844 68.554688 C 120.507812 72.167969 124.121094 75.195312 125.097656 75.195312 C 126.074219 75.195312 128.90625 72.753906 131.542969 69.726562 C 137.5 62.695312 152.34375 49.804688 154.394531 49.804688 C 155.761719 49.804688 155.859375 51.757812 155.566406 67.089844 L 155.175781 84.472656 L 158.007812 79.101562 C 161.71875 72.167969 166.992188 53.320312 169.042969 40.136719 C 169.433594 37.5 170.996094 47.460938 171.484375 56.152344 C 173.242188 86.035156 164.257812 120.703125 144.042969 161.621094 C 132.128906 185.839844 128.613281 195.3125 126.855469 208.691406 C 126.171875 213.378906 125.390625 217.675781 125 218.066406 C 124.609375 218.457031 123.828125 214.941406 123.144531 210.253906 Z M 123.144531 210.253906 "/>
<path style=" stroke:none;fill-rule:nonzero;fill:rgb(14.117648%,13.725491%,16.862746%);fill-opacity:1;" d="M 51.757812 175 C 51.757812 174.609375 56.933594 154.589844 63.28125 130.371094 C 72.851562 93.359375 74.707031 87.207031 75 91.308594 C 75.976562 110.742188 83.007812 137.011719 91.699219 154.101562 L 93.554688 157.714844 L 84.570312 157.714844 C 76.757812 157.714844 75 158.007812 69.921875 160.546875 C 66.796875 162.109375 61.425781 166.015625 58.007812 169.433594 C 54.589844 172.851562 51.757812 175.292969 51.757812 175 Z M 51.757812 175 "/>
<path style=" stroke:none;fill-rule:nonzero;fill:rgb(14.117648%,13.725491%,16.862746%);fill-opacity:1;" d="M 192.382812 169.921875 C 189.257812 166.699219 184.277344 162.890625 180.664062 161.035156 C 174.804688 158.007812 173.632812 157.714844 165.429688 157.714844 L 156.445312 157.714844 L 158.886719 152.34375 C 168.261719 131.347656 174.804688 108.203125 174.804688 95.703125 C 174.804688 88.867188 176.269531 90.722656 178.808594 100.78125 C 181.542969 111.328125 190.039062 143.847656 195.214844 163.476562 C 196.972656 169.824219 198.144531 175.195312 198.046875 175.292969 C 197.851562 175.390625 195.3125 172.949219 192.382812 169.921875 Z M 192.382812 169.921875 "/>
<path style=" stroke:none;fill-rule:nonzero;fill:rgb(14.117648%,13.725491%,16.862746%);fill-opacity:1;" d="M 203.320312 165.039062 C 202.734375 163.183594 200.683594 155.664062 198.730469 148.4375 C 196.777344 141.210938 194.335938 132.421875 193.359375 128.90625 C 192.285156 125.390625 190.820312 119.921875 190.136719 116.699219 C 189.355469 113.476562 185.546875 99.023438 181.640625 84.472656 C 177.734375 70.019531 174.316406 56.835938 174.121094 55.175781 C 173.632812 52.636719 175.195312 53.710938 186.621094 65.039062 C 204.785156 82.910156 218.066406 95.410156 232.910156 108.789062 C 239.941406 115.136719 245.703125 120.605469 245.898438 120.996094 C 245.996094 121.484375 243.164062 121.972656 239.453125 122.265625 C 231.054688 122.851562 224.21875 126.367188 218.164062 133.105469 C 212.5 139.453125 209.375 146.09375 207.03125 157.226562 C 205.957031 162.304688 204.882812 166.992188 204.6875 167.480469 C 204.589844 168.066406 203.90625 166.894531 203.320312 165.039062 Z M 203.320312 165.039062 "/>
<path style=" stroke:none;fill-rule:nonzero;fill:rgb(14.117648%,13.725491%,16.862746%);fill-opacity:1;" d="M 43.066406 157.910156 C 39.160156 141.113281 33.105469 131.738281 22.265625 125.976562 C 17.871094 123.632812 14.355469 122.558594 9.863281 122.167969 L 3.613281 121.582031 L 23.046875 103.515625 C 33.691406 93.554688 49.804688 78.320312 58.691406 69.628906 C 67.578125 60.839844 75.097656 53.710938 75.390625 53.710938 C 76.464844 53.710938 46.875 165.332031 45.410156 166.796875 C 45.214844 166.992188 44.140625 162.988281 43.066406 157.910156 Z M 43.066406 157.910156 "/>
</g>
</svg>
